!!!OTL: Der Bauer ins Holz
!!!ARE: Europa, Mitteleuropa, Deutschland
!!!SCT: A0472A
!!!YEM: Copyright 1995, estate of Helmut Schaffrath.
**kern
*ICvox
*Ivox
*M4/2
*k[f#c#]
*D:
{2d
=1
2d
2d
2a
2b
=2
1ccn
2b}
{2a
=3
2dd
2a
2a
4g
4fn
=4
2e
2e
2e}
{2d
=5
2d
2d
2a
2b
=6
1ccn
2b}
{2a
=7
2a
2g
2fn
2e
=8
2d
2d
2d}
==
!!!AGN: Romanze, Ballade, Lied
!! Pet. Schoeffer II 1536 No. 56.
!!!ONB: ESAC (Essen Associative Code) Database: ALTDEU
!!!AMT: simple quadruple
!!!AIN: vox
!!!EED: Helmut Schaffrath
!!!EEV: 1.0
*-
